X: 16651
T: Hannah Banana's
R: jig
M: 6/8
K: Fdorian
|:Bcd fdc|dBG ~G2 F|FGB c2 F|Bcd cBG|
Bcd fdc|dBG ~G2 F|FGB c2 d|~(B3 B2) F:|
|:Bcd f2 d|~g2 f fdc|d2 c cBG|cdf cBG|
Bcd f2 b|~g2 f fdc|d2 f cBG|~(B3 B2) F:|

